X: 130187
T: Mary O'Connor's 
C: BB
R: polka
L: 1/8
M: 2/4
Q: 1/8=300
L: 1/8
K: D
"D"dD Dd | "G"B>c "D"dA |"D"dD Dd | "Bm"A/B/A/F/ "D"ED | "D"dD Dd |\
"G"B>c "Em"de | "D"fd "A"ec | "D"ed d2 :|
[K: Dm] "Dm"F>A dA |"Am"G>A eA |"Dm"fe dc |"Am"cd "Dm"A2 | "F"a>g fe |\
"Bb"fe dc | "Am"(3ABc GE | "Dm"D2 D2 :|
